X: 18
T: 18. Bannister's Budget
M: 2/4
L: 1/8
Q: 1/4=120
K: F
e/f/ | af/g/ ff | af/g/ ff | dg/a/ bg | fedc | af/g/ ff | af/g/ ff | gb a/g/f/e/ | f2 f :|
B | (Ac)cc | (Ac)cc | fedc | e/f/g/e/ fB | Accc | Bddd | bgec | f2 f :|!

